static/assets/images/networks/moonbeam.svg

<svg xmlns="http://www.w3.org/2000/svg" fill="none" viewBox="0 0 512 512"><path fill="#000" d="M256 512c141.385 0 256-114.615 256-256S397.385 0 256 0 0 114.615 0 256s114.615 256 256 256"/><path fill="#E1177C" d="M312.766 411.877c4.283 0 7.955 2.452 7.955 5.518s-3.672 5.517-7.955 5.517H196.5c-4.283 0-7.955-2.452-7.955-5.517s3.672-5.518 7.955-5.518zM171.411 422.912c4.394 0 7.955-3.568 7.955-7.97s-3.561-7.97-7.955-7.97c-4.393 0-7.955 3.568-7.955 7.97s3.562 7.97 7.955 7.97M241.171 393.485c4.393 0 7.955-3.568 7.955-7.97s-3.562-7.97-7.955-7.97-7.955 3.568-7.955 7.97 3.561 7.97 7.955 7.97M377.63 377.545c4.283 0 7.955 3.679 7.955 7.97s-3.672 7.97-7.955 7.97H263.812c-4.284 0-7.955-3.678-7.955-7.97s3.671-7.97 7.955-7.97zM91.861 364.058c4.394 0 7.955-3.568 7.955-7.97s-3.561-7.97-7.955-7.97c-4.393 0-7.955 3.568-7.955 7.97s3.562 7.97 7.955 7.97M205.067 348.118c4.284 0 7.955 3.678 7.955 7.97s-3.671 7.97-7.955 7.97h-93.624c-4.284 0-7.955-3.679-7.955-7.97s3.671-7.97 7.955-7.97zM414.957 348.118c4.283 0 7.955 3.678 7.955 7.97s-3.672 7.97-7.955 7.97H228.932c-4.283 0-7.955-3.679-7.955-7.97s3.672-7.97 7.955-7.97zM380.077 318.691c4.284 0 7.955 3.678 7.955 7.97s-3.671 7.97-7.955 7.97H151.83c-4.284 0-7.955-3.679-7.955-7.97s3.671-7.97 7.955-7.97zM126.741 334.631c4.393 0 7.955-3.569 7.955-7.97 0-4.402-3.562-7.97-7.955-7.97s-7.955 3.568-7.955 7.97 3.561 7.97 7.955 7.97M332.347 289.877c4.284 0 7.955 3.678 7.955 7.97s-3.671 7.97-7.955 7.97H104.1c-4.284 0-7.955-3.679-7.955-7.97s3.671-7.97 7.955-7.97zM76.563 305.817c4.394 0 7.955-3.569 7.955-7.97 0-4.402-3.561-7.97-7.955-7.97-4.393 0-7.955 3.568-7.955 7.97s3.562 7.97 7.955 7.97M126.741 276.389c4.393 0 7.955-3.568 7.955-7.97s-3.562-7.969-7.955-7.969-7.955 3.568-7.955 7.969c0 4.402 3.561 7.97 7.955 7.97M402.107 260.45c4.283 0 7.955 3.678 7.955 7.969s-3.672 7.97-7.955 7.97H153.665c-4.283 0-7.955-3.678-7.955-7.97s3.672-7.969 7.955-7.969z"/><path fill="#5FC0C1" d="M319.115 104.68c52.749 22.398 87.915 77.594 83.919 133.59-94.309 0-188.619.8-282.928-.8 0-37.597 12.787-75.994 39.961-102.392 39.962-40.798 106.298-53.597 159.048-30.398"/></svg>

<svg width="512" height="512" viewBox="0 0 512 512" fill="none" xmlns="http://www.w3.org/2000/svg">
<path d="M256 512C397.385 512 512 397.385 512 256C512 114.615 397.385 0 256 0C114.615 0 0 114.615 0 256C0 397.385 114.615 512 256 512Z" fill="black"/>
<path d="M312.766 411.877C317.049 411.877 320.721 414.329 320.721 417.395C320.721 420.46 317.049 422.912 312.766 422.912H196.5C192.217 422.912 188.545 420.46 188.545 417.395C188.545 414.329 192.217 411.877 196.5 411.877H312.766Z" fill="#E1177C"/>
<path d="M171.411 422.912C175.805 422.912 179.366 419.344 179.366 414.942C179.366 410.54 175.805 406.972 171.411 406.972C167.018 406.972 163.456 410.54 163.456 414.942C163.456 419.344 167.018 422.912 171.411 422.912Z" fill="#E1177C"/>
<path d="M241.171 393.485C245.564 393.485 249.126 389.917 249.126 385.515C249.126 381.113 245.564 377.545 241.171 377.545C236.777 377.545 233.216 381.113 233.216 385.515C233.216 389.917 236.777 393.485 241.171 393.485Z" fill="#E1177C"/>
<path d="M377.63 377.545C381.913 377.545 385.585 381.224 385.585 385.515C385.585 389.807 381.913 393.485 377.63 393.485H263.812C259.528 393.485 255.857 389.807 255.857 385.515C255.857 381.224 259.528 377.545 263.812 377.545H377.63Z" fill="#E1177C"/>
<path d="M91.8611 364.058C96.2546 364.058 99.8161 360.49 99.8161 356.088C99.8161 351.686 96.2546 348.118 91.8611 348.118C87.4677 348.118 83.9061 351.686 83.9061 356.088C83.9061 360.49 87.4677 364.058 91.8611 364.058Z" fill="#E1177C"/>
<path d="M205.067 348.118C209.351 348.118 213.022 351.796 213.022 356.088C213.022 360.379 209.351 364.058 205.067 364.058H111.443C107.159 364.058 103.488 360.379 103.488 356.088C103.488 351.796 107.159 348.118 111.443 348.118H205.067Z" fill="#E1177C"/>
<path d="M414.957 348.118C419.24 348.118 422.912 351.796 422.912 356.088C422.912 360.379 419.24 364.058 414.957 364.058H228.932C224.649 364.058 220.977 360.379 220.977 356.088C220.977 351.796 224.649 348.118 228.932 348.118H414.957Z" fill="#E1177C"/>
<path d="M380.077 318.691C384.361 318.691 388.032 322.369 388.032 326.661C388.032 330.952 384.361 334.631 380.077 334.631H151.83C147.546 334.631 143.875 330.952 143.875 326.661C143.875 322.369 147.546 318.691 151.83 318.691H380.077Z" fill="#E1177C"/>
<path d="M126.741 334.631C131.134 334.631 134.696 331.062 134.696 326.661C134.696 322.259 131.134 318.691 126.741 318.691C122.347 318.691 118.786 322.259 118.786 326.661C118.786 331.062 122.347 334.631 126.741 334.631Z" fill="#E1177C"/>
<path d="M332.347 289.877C336.631 289.877 340.302 293.555 340.302 297.847C340.302 302.138 336.631 305.817 332.347 305.817H104.1C99.8162 305.817 96.1446 302.138 96.1446 297.847C96.1446 293.555 99.8162 289.877 104.1 289.877H332.347Z" fill="#E1177C"/>
<path d="M76.563 305.817C80.9565 305.817 84.518 302.248 84.518 297.847C84.518 293.445 80.9565 289.877 76.563 289.877C72.1696 289.877 68.608 293.445 68.608 297.847C68.608 302.248 72.1696 305.817 76.563 305.817Z" fill="#E1177C"/>
<path d="M126.741 276.389C131.134 276.389 134.696 272.821 134.696 268.419C134.696 264.018 131.134 260.45 126.741 260.45C122.347 260.45 118.786 264.018 118.786 268.419C118.786 272.821 122.347 276.389 126.741 276.389Z" fill="#E1177C"/>
<path d="M402.107 260.45C406.39 260.45 410.062 264.128 410.062 268.419C410.062 272.711 406.39 276.389 402.107 276.389H153.665C149.382 276.389 145.71 272.711 145.71 268.419C145.71 264.128 149.382 260.45 153.665 260.45H402.107Z" fill="#E1177C"/>
<path d="M319.115 104.68C371.864 127.078 407.03 182.274 403.034 238.27C308.725 238.27 214.415 239.07 120.106 237.47C120.106 199.873 132.893 161.476 160.067 135.078C200.029 94.2804 266.365 81.4813 319.115 104.68Z" fill="#5FC0C1"/>
</svg>
